icons/solid/paper-clip.svg

<svg width="24" height="24" viewBox="0 0 24 24" fill="none" xmlns="http://www.w3.org/2000/svg">
<path fill-rule="evenodd" clip-rule="evenodd" d="M6 2C3.79086 2 2 3.79086 2 6V18C2 20.2091 3.79086 22 6 22H18C20.2091 22 22 20.2091 22 18V6C22 3.79086 20.2091 2 18 2H6ZM19 9C19 8.44772 18.5523 8 18 8C17.4477 8 17 8.44772 17 9V13C17 15.7614 14.7614 18 12 18C9.23858 18 7 15.7614 7 13L7 9C7 7.34315 8.34315 6 10 6C11.6569 6 13 7.34315 13 9V13C13 13.5523 12.5523 14 12 14C11.4477 14 11 13.5523 11 13V9C11 8.44772 10.5523 8 10 8C9.44771 8 9 8.44772 9 9L9 13C9 14.6569 10.3431 16 12 16C13.6569 16 15 14.6569 15 13V9C15 6.23858 12.7614 4 10 4C7.23858 4 5 6.23858 5 9L5 13C5 16.866 8.13401 20 12 20C15.866 20 19 16.866 19 13V9Z" fill="currentColor"/>
</svg>

<svg width="24" height="24" fill="none" xmlns="http://www.w3.org/2000/svg"><path fill-rule="evenodd" clip-rule="evenodd" d="M6 2a4 4 0 00-4 4v12a4 4 0 004 4h12a4 4 0 004-4V6a4 4 0 00-4-4H6zm13 7a1 1 0 10-2 0v4a5 5 0 01-10 0V9a3 3 0 016 0v4a1 1 0 11-2 0V9a1 1 0 10-2 0v4a3 3 0 106 0V9A5 5 0 005 9v4a7 7 0 1014 0V9z" fill="currentColor"/></svg>
